X:1
T:Constantly Abiding
T:Anne May Sebring Murphy, 1908
T:Constantly Abiding
T:Public Domain
T:Public Domain
T:Public Domain
C:Anne May Sebring Murphy, 1908
Z:Public Domain
%%score ( 1 2 ) 3
L:1/8
M:3/4
K:D
V:1 treble 
V:2 treble 
V:3 bass 
V:1
 D>[DE] | [DF]2 [DE]2 D2 | [FA]4 [DF]>[FA] | [Fd]2 [Gc]2 [Ad]2 | [GB]4 [GB]2 | [FA]2 [EG]2 [DF]2 | %6
w: 1.~There’s a|in my heart|the world nev-|er gave, A|peace it|can- not take|
w: 2.~All the|seemed to sing|a Sav- ior|and King, When|peace sweet-|ly came to|
w: 3.~Th- is|asure I have|a temp- le|of clay, While|here on|His foot- stool|
 [DA]2 [CG]2 [DF]2 | [CE]6 | D>[DE] | [DF]2 [DE]2 D2 | [FA]4 [DF]>[FA] | [Fd]2 [Gc]2 [Ad]2 | %12
w: a- way; Though|the|tri- als|life may sur-|like a cloud,|I’ve a peace|
w: my heart; Trou-|bles|all fled|way and my|turned to day,|Bless- èd Je-|
w: I roam; But|He’s|com- ing|take me some|i- ous day,|O- ver there|
 [GB]4 [GB]>[GB] | [FA]2 [DF]2 [Fd]2 | [Ec]2 [CA]2 [DB]2 | [CA]6 || %16
w: that has come|here to stay!|||
w: sus, how glor-|ious Thou art!|Con- stant- ly|a-|
w: to my heav-|en- ly home!|||
[M:4/4]"^Refrain" [DF]4- [DF]>[EG] [FA]>[GB] | [FA]4 [DF]4 | (F2 F>F) [FA]2 [Ad]2 | %19
w: |||
w: bid- * ing, Je- sus|is mine;|Con- * * stant- ly|
w: |||
 (G2 G>G [Gc]4) | [EG]4- [EG]>[FA] [GB]>[Ac] | [GB]4 [EG]4 | [Gc]4 [GB]2 [EG]2 | [DF]8 | %24
w: |||||
w: bid- * * *|rap- * ture di- vine;|He nev-|er leaves me|lone-|
w: |||||
 [FA]4 [DF]>[EG] [FA]>[GB] | [FA]4 [DF]4 | [Fd]2 [Fc]2 [Fe]2 [Ad]2 | [GB]8 | %28
w: ||||
w: ly, whis- pers, O so|kind: “I|will nev- er leave|thee,”|
w: ||||
 [Bd]3 [Bd] [Ac]2 [GB]2 | (A2 G2) (F2 F2) | (F2 F2) [EG]2 (C>C) | D6 |] %32
w: ||||
w: Je- sus is mine.||||
w: ||||
V:2
 D3/2 x/ | x4 D2 | x6 | x6 | x6 | x6 | x6 | x6 | D3/2 x/ | x4 D2 | x6 | x6 | x6 | x6 | x6 | x6 || %16
w: peace|that|||||||of|round|||||||
w: world|of|||||||a-|night|||||||
w: tre-|in|||||||to|glor-|||||||
[M:4/4] x8 | x8 | d4 x4 | c4- x4 | x8 | x8 | x8 | x8 | x8 | x8 | x8 | x8 | x8 | d4 A4 | A4 E2 x2 | %31
w: |||||||||||||||
w: ||a-|ing,||||||||||||
w: |||||||||||||||
 D6 |] %32
w: |
w: |
w: |
V:3
 [D,F,]>[D,G,] | [D,A,]2 [D,G,]2 [D,F,]2 | [D,D]4 [D,A,]>[D,D] | [D,A,]2 [E,A,]2 [F,D]2 | %4
 [G,D]4 [G,D]2 | [D,D]2 [D,A,]2 [D,A,]2 | [F,A,]2 [E,A,]2 [D,A,]2 | [A,,A,]6 | [D,F,]>[D,G,] | %9
 [D,A,]2 [D,G,]2 [D,F,]2 | [D,D]4 [D,A,]>[D,D] | [D,A,]2 [E,A,]2 [F,D]2 | [G,D]4 [G,D]>[G,D] | %13
 [D,D]2 [D,A,]2 [D,A,]2 | [E,A,]2 [E,A,]2 [E,^G,]2 | [A,,A,]6 || %16
[M:4/4] ([D,A,]>[D,A,] [D,A,]>[D,A,] [D,A,]2) [D,D]2 | %17
 ([D,D]>[D,D] [D,D]>[D,D]) ([D,A,]2 [D,A,]2) | ([D,A,]2 [D,A,]>[D,A,]) [D,D]2 [F,D]2 | %19
 ([A,E]2 [A,E]>[A,E] [A,E]4) | ([A,,C]>[A,,C] [A,,C]>[A,,C] [A,,C]2) [A,,C]2 | %21
 ([A,,C]>[A,,C] [A,,C]>[A,,C]) ([A,,C]2 [A,,C]2) | ([A,,A,]2 [A,,A,]>[A,,A,]) [A,,C]2 [A,,A,]2 | %23
 ([D,A,]2 [D,A,]>[D,A,] [D,A,]4) | ([D,D]2 [D,D]>[D,D]) [D,A,]2 [D,D]2 | %25
 ([D,D]>[D,D] [D,D]>[D,D]) ([D,A,]2 [D,A,]2) | [D,A,]2 [D,A,]2 [D,A,]2 [F,D]2 | %27
 ([G,D]2 [G,D]2 [G,D]4) | [G,D]3 [G,D] [G,D]2 [G,D]2 | ([F,D]2 [E,A,]2) ([D,D]2 [D,D]2) | %30
 ([A,,D]2 [A,,D]2) [A,,C]2 ([A,,A,]>[A,,G,]) | [D,F,]6 |] %32

